icons/line/annotation.svg

<svg width="24" height="24" viewBox="0 0 24 24" fill="none" xmlns="http://www.w3.org/2000/svg">
<path d="M7 8H17M7 12H12M16.8284 17H19C20.1046 17 21 16.1046 21 15V6C21 4.89543 20.1046 4 19 4H5C3.89543 4 3 4.89543 3 6V15C3 16.1046 3.89543 17 5 17H7.17157C7.70201 17 8.21071 17.2107 8.58579 17.5858L10.5858 19.5858C11.3668 20.3668 12.6332 20.3668 13.4142 19.5858L15.4142 17.5858C15.7893 17.2107 16.298 17 16.8284 17Z" stroke="currentColor" stroke-width="2" stroke-linecap="round" stroke-linejoin="round"/>
</svg>

<svg width="24" height="24" fill="none" xmlns="http://www.w3.org/2000/svg"><path d="M7 8h10M7 12h5m4.828 5H19a2 2 0 002-2V6a2 2 0 00-2-2H5a2 2 0 00-2 2v9a2 2 0 002 2h2.172a2 2 0 011.414.586l2 2a2 2 0 002.828 0l2-2A2 2 0 0116.828 17z" stroke="currentColor" stroke-width="2" stroke-linecap="round" stroke-linejoin="round"/></svg>
